!!!Xfilter:transpose -tP8
!!!OTL: 1747. Was Alles zu einem Kittel gehoert. / [Zaehlgeschichte.]
!!!ARE: Europa, Mitteleuropa, Deutschland, Schlesien
!!!SCT: E1747
!!!TXL: @@DE
!!!YEM: Copyright 1995, estate of Helmut Schaffrath.
**kern	**text
*ICvox	*
*M3/8	*
*k[]	*
*C:	*
!LO:TX:a:t=Munter.	!
!LO:TX:a:t=Hoffmann, ſchleſ. VL. Nr. 51.	!
{8g	Jch
=1	=1
8cc	wollt
8cc	mir
8cc	ʒu
=2	=2
4cc	ei-
8cc	-nem
=3	=3
8cc	Kit-
8b/	-tel-
8a	-chen
=4	=4
8g	ſam-
8g}	-meln,
{8g	da
=5	=5
8g	kam
8g	ich
8g	ʒu
=6	=6
4cc	ei-
8g	-nem
=7	=7
8g^^L	Hahn
8fJ	.
8f	ge-
=8	=8
8e	-gan-
8e}	-gen,
{8e	ſprach
=9	=9
8ccL	lie-
8bJ	.
8a	-ber
=10	=10
4g	Hahn
8g	gieb
=11	=11
8ccL	auch
8bJ	.
8a	da-
=12	=12
4g}	-ʒu!
{8g	Der
=13	=13
8ccL	Hahn,
8bJ	.
8a	der
=14	=14
4g	ſprach
8g	wills
=15	=15
8ccL	ger-
8bJ	.
8a	-ne
=16	=16
4g}	thun,
{8g	ich
=17	=17
8ccL	will
8bJ	.
8a	dir
=18	=18
8g	ge-
8g	-ben
16g	meinen
16g	.
=19	=19
8ccL^^	Kamm
8bJ	.
8a	daʒu.
=20	=20
4g	.
8r}	.
=21||	=21||
{4g	Ei,
8g	ſo
=22	=22
8g	ha-
8g	-ben
8g	wir
=23	=23
8g	Hahnes
8g	.
8g	ſein
=24	=24
4cc}	Kamm!
==	==
!!!AGN: Scherz -, Spiel - Lied, Zaehl - Geschichte
!!!ONB: ESAC (Essen Associative Code) Database: ERK3
!!!AMT: simple triple
!!!AIN: vox
!!!EED: Helmut Schaffrath
!!!EEV: 1.0
!!!GTL: Scherz-, Spiel- und Spottlieder.
!!!URL-scan: https://rosdok.uni-rostock.de/mcrviewer/recordIdentifier/rosdok_ppn745177999/iview2/phys_0536.iview2?x=-449.8344612962892&y=1593.8149387305602&scale=0.47549036216460333&rotation=0&layout=singlePageLayout
!!!ENC: Anna Maria Matuszewska
!!!EEV: 2025/08/01
*-	*-
